icons/medium-logo.svg

<?xml version="1.0" encoding="UTF-8"?>
<svg width="512px" height="78px" viewBox="0 0 512 78" version="1.1" xmlns="http://www.w3.org/2000/svg" xmlns:xlink="http://www.w3.org/1999/xlink" preserveAspectRatio="xMidYMid">
    <g>
        <path d="M38.4,0.853333333 C59.5626667,0.853333333 76.8,18.0906667 76.8,39.424 C76.8,60.7573333 59.5626667,77.9946667 38.4,77.9946667 C17.2373333,77.9946667 0,60.928 0,39.424 C0,17.92 17.2373333,0.853333333 38.4,0.853333333 Z M339.456,0 L339.456,67.584 C339.456,72.704 341.504,74.0693333 345.429333,75.0933333 L345.429333,75.0933333 L345.6,75.9466667 L323.925333,75.9466667 L323.925333,67.584 C321.365333,73.728 316.074667,77.4826667 309.248,77.4826667 C297.642667,77.4826667 289.962667,66.9013333 289.962667,51.2 C289.962667,42.3253333 292.522667,34.816 297.301333,29.184 C301.909333,23.7226667 308.224,20.8213333 315.221333,20.8213333 C318.634667,20.8213333 321.536,21.504 323.925333,23.04 L323.925333,23.04 L323.925333,13.824 C323.925333,11.776 323.413333,10.4106667 322.389333,9.38666667 C321.024,8.192 318.805333,7.68 315.392,8.02133333 L315.392,8.02133333 L315.221333,8.02133333 L315.221333,7.168 L339.456,0 Z M421.717333,20.992 L421.717333,67.584 C421.717333,72.704 423.765333,74.0693333 427.690667,75.0933333 L427.690667,75.0933333 L427.690667,75.9466667 L406.016,75.9466667 L406.016,67.4133333 C403.456,73.5573333 397.824,77.4826667 391.509333,77.4826667 C384,77.4826667 379.221333,74.0693333 377.344,67.4133333 L377.344,67.4133333 L377.002667,65.7066667 C376.661333,64 376.490667,62.2933333 376.490667,60.5866667 L376.490667,60.5866667 L376.490667,35.6693333 C376.490667,30.208 375.296,28.5013333 370.517333,28.16 L370.517333,28.16 L370.346667,28.16 L370.346667,27.3066667 L392.021333,20.992 L392.021333,60.2453333 C392.021333,66.048 394.581333,69.2906667 399.36,69.2906667 C402.261333,69.2906667 404.650667,67.7546667 406.016,65.1946667 L406.016,65.1946667 L406.016,35.6693333 C406.016,30.0373333 404.992,28.3306667 401.066667,27.9893333 L401.066667,27.9893333 L400.896,27.9893333 L400.896,27.136 L421.717333,20.992 Z M265.216,20.8213333 C271.018667,20.8213333 276.650667,22.8693333 280.405333,26.4533333 C284.672,30.5493333 286.890667,36.5226667 287.061333,44.3733333 L287.061333,44.3733333 L287.061333,44.544 L254.464,44.544 C253.781333,55.808 260.778667,65.024 269.994667,65.3653333 C276.650667,65.8773333 282.453333,61.7813333 285.696,55.1253333 L285.696,55.1253333 L286.549333,55.4666667 C284.672,67.9253333 277.333333,77.312 264.533333,77.312 C250.026667,77.312 241.834667,65.1946667 241.493333,50.0053333 L241.493333,50.0053333 L241.493333,46.08 C242.176,39.424 244.224,33.4506667 247.808,29.0133333 C250.026667,26.2826667 252.586667,24.2346667 255.658667,22.8693333 C258.218667,21.504 261.973333,20.8213333 265.045333,20.8213333 L265.045333,20.8213333 Z M491.008,20.992 C500.224,20.992 505.856,26.7946667 505.856,36.6933333 L505.856,36.6933333 L505.856,68.4373333 C505.856,72.192 507.562667,74.0693333 511.829333,75.0933333 L511.829333,75.0933333 L512,75.0933333 L512,75.9466667 L490.154667,75.9466667 L490.154667,37.2053333 C490.154667,31.0613333 487.936,27.9893333 483.328,27.9893333 C479.573333,27.9893333 477.696,30.72 476.672,33.1093333 C476.842667,34.304 477.013333,35.4986667 477.013333,36.6933333 L477.013333,36.6933333 L477.013333,68.9493333 C477.013333,72.8746667 478.208,74.24 481.621333,75.0933333 L481.621333,75.0933333 L481.792,75.0933333 L481.792,75.9466667 L461.482667,75.9466667 L461.482667,37.2053333 C461.482667,31.0613333 459.093333,27.9893333 454.656,27.9893333 C451.072,27.9893333 449.194667,30.5493333 448.341333,32.5973333 L448.341333,32.5973333 L448.341333,69.12 C448.341333,73.0453333 449.536,74.4106667 452.949333,75.264 L452.949333,75.264 L453.12,75.264 L453.12,76.1173333 L432.810667,76.1173333 L432.810667,35.4986667 C432.810667,30.0373333 431.445333,28.3306667 426.837333,27.9893333 L426.837333,27.9893333 L426.666667,27.9893333 L426.666667,27.136 L448.341333,21.1626667 L448.341333,30.208 C450.56,24.4053333 455.68,20.992 462.165333,20.992 C469.504,20.992 474.624,24.576 476.330667,31.0613333 C478.549333,24.9173333 484.181333,20.992 491.008,20.992 Z M179.712,3.41333333 L200.021333,51.0293333 L220.330667,3.41333333 L242.176,3.41333333 L242.005333,4.26666667 L241.757331,4.32185803 C237.993778,5.17964448 236.032,6.58700709 236.032,11.264 L236.032,11.264 L236.032,69.2906667 C236.373333,73.0453333 238.421333,74.24 242.005333,75.0933333 L242.005333,75.0933333 L242.176,75.0933333 L242.176,75.9466667 L214.357333,75.9466667 L214.357333,75.0933333 L214.528,75.0933333 C218.112,74.24 220.16,73.0453333 220.501333,69.2906667 L220.501333,69.2906667 L220.501333,12.8 L193.706667,75.776 L192.170667,75.776 L166.058667,14.5066667 L166.058667,67.9253333 C166.058667,72.704 168.106667,74.0693333 172.032,74.9226667 L172.032,74.9226667 L172.202667,74.9226667 L172.202667,75.776 L156.16,75.776 L156.16,74.9226667 L156.330667,74.9226667 C160.256,74.0693333 162.304,72.704 162.304,67.9253333 L162.304,67.9253333 L162.304,11.264 C162.304,6.48533333 160.256,5.12 156.330667,4.26666667 L156.330667,4.26666667 L156.16,4.26666667 L156.16,3.41333333 L179.712,3.41333333 Z M365.909333,20.992 L365.909333,67.584 L365.911998,67.899142 C365.995481,72.7607407 368.039111,74.0906667 371.882667,75.0933333 L371.882667,75.0933333 L372.053333,75.9466667 L350.378667,75.9466667 L350.378667,35.6693333 C350.378667,30.208 349.184,28.5013333 344.405333,28.16 L344.405333,28.16 L344.234667,28.16 L344.234667,27.3066667 L365.909333,20.992 Z M99.84,3.072 C110.250667,3.072 118.954667,19.456 118.954667,39.424 C118.954667,59.5626667 110.421333,75.776 99.84,75.776 C89.2586667,75.776 80.7253333,59.5626667 80.7253333,39.424 C80.7253333,19.2853333 89.2586667,3.072 99.84,3.072 Z M129.194667,6.82666667 C133.12,6.82666667 136.021333,21.504 136.021333,39.424 C136.021333,57.344 132.949333,72.0213333 129.194667,72.0213333 C125.477547,72.0213333 122.429508,57.6360789 122.368919,39.9606158 L122.368,39.424 C122.368,21.504 125.44,6.82666667 129.194667,6.82666667 Z M317.781333,23.8933333 C310.954667,23.8933333 306.688,32.9386667 306.688,46.9333333 C306.688,53.5893333 307.882667,59.392 309.930667,63.3173333 C311.808,67.072 314.538667,69.12 317.610667,69.12 C320.682667,69.12 322.901333,67.7546667 323.925333,65.1946667 L323.925333,65.1946667 L323.925333,27.648 C322.730667,25.2586667 320.512,23.8933333 317.781333,23.8933333 Z M265.045333,24.064 C258.901333,24.064 255.317333,31.4026667 254.805333,41.6426667 L254.805333,41.6426667 L254.805333,41.8133333 L273.408,41.8133333 C273.749333,33.792 272.384,28.5013333 269.824,25.9413333 C268.458667,24.7466667 266.922667,24.064 265.045333,24.064 Z M357.546667,0.512 C362.496,0.512 366.250667,4.26666667 366.250667,9.216 C366.250667,14.1653333 362.496,17.92 357.546667,17.92 C352.597333,17.92 348.842667,14.1653333 348.842667,9.216 C348.842667,4.26666667 352.597333,0.512 357.546667,0.512 Z" fill="#000000"></path>
    </g>
</svg>

<svg xmlns="http://www.w3.org/2000/svg" viewBox="0 0 512 77.995">
  <path d="M38.4.853c21.163 0 38.4 17.238 38.4 38.571s-17.237 38.57-38.4 38.57S0 60.929 0 39.425 17.237.854 38.4.854zM339.456 0v67.584c0 5.12 2.048 6.485 5.973 7.51l.171.853h-21.675v-8.363c-2.56 6.144-7.85 9.899-14.677 9.899-11.605 0-19.285-10.582-19.285-26.283 0-8.875 2.56-16.384 7.338-22.016 4.608-5.461 10.923-8.363 17.92-8.363 3.414 0 6.315.683 8.704 2.219v-9.216c0-2.048-.512-3.413-1.536-4.437-1.365-1.195-3.584-1.707-6.997-1.366h-.17v-.853zm82.261 20.992v46.592c0 5.12 2.048 6.485 5.974 7.51v.853h-21.675v-8.534c-2.56 6.144-8.192 10.07-14.507 10.07-7.509 0-12.288-3.414-14.165-10.07l-.341-1.706a26.048 26.048 0 0 1-.512-5.12V35.669c0-5.461-1.195-7.168-5.974-7.509h-.17v-.853l21.674-6.315v39.253c0 5.803 2.56 9.046 7.339 9.046 2.901 0 5.29-1.536 6.656-4.096V35.669c0-5.632-1.024-7.338-4.95-7.68h-.17v-.853zm-156.501-.17c5.803 0 11.435 2.047 15.19 5.631 4.266 4.096 6.485 10.07 6.655 17.92v.171h-32.597c-.683 11.264 6.315 20.48 15.53 20.821 6.657.512 12.46-3.584 15.702-10.24l.853.342c-1.877 12.458-9.216 21.845-22.016 21.845-14.506 0-22.698-12.117-23.04-27.307V46.08c.683-6.656 2.731-12.63 6.315-17.067 2.219-2.73 4.779-4.778 7.85-6.144 2.56-1.365 6.315-2.048 9.387-2.048zm225.792.17c9.216 0 14.848 5.803 14.848 15.701v31.744c0 3.755 1.707 5.632 5.973 6.656H512v.854h-21.845V37.205c0-6.144-2.219-9.216-6.827-9.216-3.755 0-5.632 2.731-6.656 5.12.17 1.195.341 2.39.341 3.584V68.95c0 3.926 1.195 5.291 4.608 6.144h.171v.854h-20.31V37.205c0-6.144-2.389-9.216-6.826-9.216-3.584 0-5.461 2.56-6.315 4.608V69.12c0 3.925 1.195 5.29 4.608 6.144h.171v.853h-20.31V35.5c0-5.462-1.365-7.168-5.973-7.51h-.17v-.853l21.674-5.973v9.045c2.219-5.803 7.339-9.216 13.824-9.216 7.339 0 12.459 3.584 14.166 10.07 2.218-6.145 7.85-10.07 14.677-10.07zM179.712 3.413l20.31 47.616L220.33 3.413h21.845l-.17.854-.249.055c-3.763.858-5.725 2.265-5.725 6.942v58.027c.341 3.754 2.39 4.949 5.973 5.802h.171v.854h-27.819v-.854h.171c3.584-.853 5.632-2.048 5.973-5.802V12.8l-26.794 62.976h-1.536l-26.112-61.27v53.42c0 4.778 2.048 6.143 5.973 6.997h.17v.853H156.16v-.853h.17c3.926-.854 5.974-2.219 5.974-6.998V11.264c0-4.779-2.048-6.144-5.973-6.997h-.171v-.854zm186.197 17.579v46.592l.003.315c.084 4.862 2.127 6.192 5.971 7.194l.17.854H350.38V35.669c0-5.461-1.195-7.168-5.974-7.509h-.17v-.853zM99.84 3.072c10.41 0 19.115 16.384 19.115 36.352 0 20.139-8.534 36.352-19.115 36.352-10.581 0-19.115-16.213-19.115-36.352 0-20.139 8.534-36.352 19.115-36.352zm29.355 3.755c3.925 0 6.826 14.677 6.826 32.597s-3.072 32.597-6.826 32.597c-3.717 0-6.765-14.385-6.826-32.06l-.001-.537c0-17.92 3.072-32.597 6.827-32.597zM317.78 23.893c-6.826 0-11.093 9.046-11.093 23.04 0 6.656 1.195 12.459 3.243 16.384 1.877 3.755 4.608 5.803 7.68 5.803s5.29-1.365 6.314-3.925V27.648c-1.194-2.39-3.413-3.755-6.144-3.755zm-52.736.171c-6.144 0-9.728 7.339-10.24 17.579v.17h18.603c.341-8.021-1.024-13.312-3.584-15.872-1.365-1.194-2.901-1.877-4.779-1.877zM357.547.512c4.949 0 8.704 3.755 8.704 8.704 0 4.95-3.755 8.704-8.704 8.704-4.95 0-8.704-3.755-8.704-8.704 0-4.95 3.754-8.704 8.704-8.704z"/>
</svg>
